X:1
T: I'll Hap Ye in my Plaidie
C:
R:Strathspey
Q: 128
K:G
M:4/4
L:1/16
|:g2|d3B A3G E3D E3G|d3e d3B d6g2|d3B A3G E3D E3G|e3f e3^d e4 e2g2|
d3B A3G E3D E3G|d3e d3B d6g2|d3B A3G E3D E3G|e3f e3^d e4 e2g2|
d3e g3a gab2 a3g|d3e d3B d6g2|d3e g3a gab2 a3g|eb3 a3g e6g2|
d3e g3a gab2 a3g|d3e d3B d6g2|d3B A3G E3D E3G|e3f e3^d e6:|
